fs/picture_in_picture_20_regular.svg

<svg viewBox="0 0 20 20" fill="none" xmlns="http://www.w3.org/2000/svg" height="1em" width="1em">
  <path d="M2 5.75C2 4.23122 3.23122 3 4.75 3H15.25C16.7688 3 18 4.23122 18 5.75V10H17V5.75C17 4.7835 16.2165 4 15.25 4H4.75C3.7835 4 3 4.7835 3 5.75V12.25C3 13.2165 3.7835 14 4.75 14H9V15H4.75C3.23122 15 2 13.7688 2 12.25V5.75ZM11.5 11C10.6716 11 10 11.6716 10 12.5V16.5C10 17.3284 10.6716 18 11.5 18H17.5C18.3284 18 19 17.3284 19 16.5V12.5C19 11.6716 18.3284 11 17.5 11H11.5Z" fill="#212121"/>
</svg>

<svg viewBox="0 0 20 20" fill="none" xmlns="http://www.w3.org/2000/svg" height="1em" width="1em">
  <path d="M2 5.75A2.75 2.75 0 0 1 4.75 3h10.5A2.75 2.75 0 0 1 18 5.75V10h-1V5.75A1.75 1.75 0 0 0 15.25 4H4.75A1.75 1.75 0 0 0 3 5.75v6.5c0 .966.784 1.75 1.75 1.75H9v1H4.75A2.75 2.75 0 0 1 2 12.25v-6.5ZM11.5 11a1.5 1.5 0 0 0-1.5 1.5v4a1.5 1.5 0 0 0 1.5 1.5h6a1.5 1.5 0 0 0 1.5-1.5v-4a1.5 1.5 0 0 0-1.5-1.5h-6Z" fill="#212121"/>
</svg>
